resources/haticons/SVG/money.svg

<svg height="24" width="24" xmlns="http://www.w3.org/2000/svg"><path d="m3.984 18h16.031v-12h-16.031zm-1.968-14.016h19.969v16.031h-19.969zm15 10.032v-4.031h-1.031v4.031zm.984-6q.422 0 .703.281t.281.703v6q0 .422-.281.703t-.703.281h-3q-.422 0-.703-.281t-.281-.703v-6q0-.422.281-.703t.703-.281zm-6.984 6v-4.031h-1.031v4.031zm.984-6q.422 0 .703.281t.281.703v6q0 .422-.281.703t-.703.281h-3q-.422 0-.703-.281t-.281-.703v-6q0-.422.281-.703t.703-.281zm-6.984 0h1.969v7.969h-1.969z"/></svg>

<svg height="24" width="24" xmlns="http://www.w3.org/2000/svg"><path d="M3.984 18h16.031V6H3.984zM2.016 3.984h19.969v16.031H2.016zm15 10.032V9.985h-1.031v4.031zm.984-6q.422 0 .703.281t.281.703v6q0 .422-.281.703t-.703.281h-3q-.422 0-.703-.281T14.016 15V9q0-.422.281-.703T15 8.016zm-6.984 6V9.985H9.985v4.031zm.984-6q.422 0 .703.281t.281.703v6q0 .422-.281.703t-.703.281H9q-.422 0-.703-.281T8.016 15V9q0-.422.281-.703T9 8.016zm-6.984 0h1.969v7.969H5.016z"/></svg>
